X: 1
T: The Mossy Banks
R: reel
M: 4/4
L: 1/8
K: Gmaj
gedB G3A|BAGB AE~E2|D2GA Bd~d2|edgd egfa|
gedB G3A|BAGB AE~E2|~B3d egge|1dBAc BGGd:|2dBAc BGAF||
|:G3B AEGE|DGBG ABGc|Bd~d2 edge|dBGA BAAB|
GABG AEGE|DGBG ABGc|Bd~d2 eage|1dBAc BGAF:|2dBAc BGGd||
|:g2dg egde|gabg adef|g2dg egdB|ABGA BGBd|
g2dg egde|gabg adef|~g3f gfed|egfa gdef:|


Tune 1846	Setting 15278

